X: 3
T: Concertina, The
Z: Donough
S: https://thesession.org/tunes/3535#setting16563
R: hornpipe
M: 4/4
L: 1/8
K: Gmaj
GABc defa| g2 dc BG G2| FGAB cedc|BGAG ~F2 Dz|!GABc defa| g2 dc BG G2| FGAB cAGF| DGGF G2 z2:||!(3Bcd de dcBc| dg (3fga gfdB|cBcd cAFA | cAFA DABc|!d^cde dcBc | dg (3fga gfdc | (3Bcd gd cAGF|DGGF G2 z2|!(3Bcd de dcBc| dg (3fga gfdB|cA ~A2 ceag|fd ~d2 (3cBA Bc|!dB ~B2 dcBc|dg (3fga gfdc | (3Bcd gd cAGF|DGGF G2 z2||!
